X:150
T: Westbrook Bell
M: C|
L: 1/8
C: Brad Maloney
R: Reel
K: G
g2fg (3efg dB |(3cdc (3BcB AGEG|EGDG (3EFG DB,|\
DEGA (3Bcd ef|
g2fg (3efg dB |(3cdc (3BcB AGEG| EGDG (3EFG DB,|\
DEGA BG{F}G2|]
gfga (3bag (3agf|gdBd ecAg|fdad bdad |gfga bgdg |
{a}g3a bgdB|cBcd efga|(3bag (3agf gdBd |cAFD G4|]
